X: 9106
T: Da Sneck O' Da Smaalie
R: reel
M: 4/4
K: Aminor
K:Bmin
|:fBBd cBcd|FBdB ecAc|fBBd cBcd|BdcA ~Bcde:|
|:GBBd cBcd|edcd fdcB|GBBd cBcd|edcd ~B2B2:|

